airbyte-config/init/src/main/resources/icons/asana.svg

<?xml version="1.0" encoding="utf-8"?>
<svg width="111px" height="22px" viewBox="0 0 111 22" version="1.1" xmlns="http://www.w3.org/2000/svg">
    <defs>
        <radialGradient cx="50%" cy="54.2297354%" fx="50%" fy="54.2297354%" r="55.7622718%"
                        gradientTransform="translate(0.500000,0.542297),scale(0.923616,1.000000),rotate(149.072303),scale(1.000000,1.015506),translate(-0.500000,-0.542297)"
                        id="radialGradient-1">
            <stop stop-color="#FFB900" offset="0%"></stop>
            <stop stop-color="#FA5C86" offset="74.7090242%"></stop>
            <stop stop-color="#F95353" offset="100%"></stop>
        </radialGradient>
    </defs>
    <g stroke="none" stroke-width="1" fill="none" fill-rule="evenodd">
        <g id="dots-wrapper">
            <path d="M17.0078833,5.1514375 C17.0078833,7.99677083 14.6998171,10.3034479 11.8525754,10.3034479 C9.00521901,10.3034479 6.69715289,7.99677083 6.69715289,5.1514375 C6.69715289,2.30667708 9.00521901,-1.42108547e-14 11.8525754,-1.42108547e-14 C14.6998171,-1.42108547e-14 17.0078833,2.30667708 17.0078833,5.1514375 L17.0078833,5.1514375 Z M5.15542252,11.5914792 C2.30818079,11.5914792 -2.84217094e-14,13.8974687 -2.84217094e-14,16.7428021 C-2.84217094e-14,19.5879062 2.30818079,21.8943542 5.15542252,21.8943542 C8.00277893,21.8943542 10.3110744,19.5879062 10.3110744,16.7428021 C10.3110744,13.8974687 8.00277893,11.5914792 5.15542252,11.5914792 L5.15542252,11.5914792 Z M18.5496136,11.5910208 C15.7023719,11.5910208 13.3941911,13.8974687 13.3941911,16.7428021 C13.3941911,19.5879062 15.7023719,21.8943542 18.5496136,21.8943542 C21.3968554,21.8943542 23.7050362,19.5879062 23.7050362,16.7428021 C23.7050362,13.8974687 21.3968554,11.5910208 18.5496136,11.5910208 L18.5496136,11.5910208 Z"
                  id="dots" fill="url(#radialGradient-1)"></path>
        </g>
        <g id="Text" transform="translate(29.240702, 3.322917)" fill="#273347">
            <path d="M12.6047716,13.3588358 C12.6719933,14.1230851 13.2837343,15.0958717 14.3435813,15.0958717 L14.963696,15.0958717 C15.2040892,15.0958717 15.4011024,14.898965 15.4011024,14.6585597 L15.4011024,1.03059093 L15.3984275,1.03059093 C15.385867,0.801002115 15.1960645,0.617121711 14.963696,0.617121711 L13.042178,0.617121711 C12.8098095,0.617121711 12.620007,0.801002115 12.6070976,1.03059093 L12.6047716,1.03059093 L12.6047716,2.13794408 C11.427461,0.687835996 9.57130394,0.0859504229 7.70991339,0.0859504229 C3.47901512,0.0859504229 0.0491951392,3.51582589 0.0491951392,7.7470524 C0.0491951392,11.9785115 3.47901512,15.4085033 7.70991339,15.4085033 L7.70991339,15.4088522 C9.57130394,15.4088522 11.5998184,14.6867058 12.604539,13.3570912 L12.6047716,13.3588358 L12.6047716,13.3588358 Z M7.71747292,12.7271758 C5.02662674,12.7271758 2.84517703,10.4976985 2.84517703,7.7470524 C2.84517703,4.99687148 5.02662674,2.76727796 7.71747292,2.76727796 C10.4082028,2.76727796 12.5894199,4.99687148 12.5894199,7.7470524 C12.5894199,10.4976985 10.4082028,12.7271758 7.71747292,12.7271758 L7.71747292,12.7271758 Z"
                  id="Fill-1"></path>
            <path d="M43.9109067,13.3588358 C43.9781284,14.1230851 44.5898694,15.0958717 45.6497165,15.0958717 L46.2698311,15.0958717 C46.5102243,15.0958717 46.7070049,14.898965 46.7070049,14.6585597 L46.7070049,1.03059093 L46.7045626,1.03059093 C46.6920021,0.801002115 46.501967,0.617121711 46.2698311,0.617121711 L44.3483131,0.617121711 C44.1159446,0.617121711 43.9261421,0.801002115 43.9131164,1.03059093 L43.9109067,1.03059093 L43.9109067,2.13794408 C42.7334798,0.687835996 40.8773227,0.0859504229 39.0159322,0.0859504229 C34.7850339,0.0859504229 31.3553303,3.51582589 31.3553303,7.7470524 C31.3553303,11.9785115 34.7850339,15.4085033 39.0159322,15.4085033 L39.0159322,15.4088522 C40.8773227,15.4088522 42.9059535,14.6867058 43.9106741,13.3570912 L43.9109067,13.3588358 L43.9109067,13.3588358 Z M39.0233754,12.7271758 C36.3327619,12.7271758 34.1511958,10.4976985 34.1511958,7.7470524 C34.1511958,4.99687148 36.3327619,2.76727796 39.0233754,2.76727796 C41.7143379,2.76727796 43.8954387,4.99687148 43.8954387,7.7470524 C43.8954387,10.4976985 41.7143379,12.7271758 39.0233754,12.7271758 L39.0233754,12.7271758 Z"
                  id="Fill-2"></path>
            <path d="M78.907724,13.3588358 C78.9749457,14.1230851 79.5866867,15.0958717 80.6465337,15.0958717 L81.2666483,15.0958717 C81.5070416,15.0958717 81.7041711,14.898965 81.7041711,14.6585597 L81.7041711,1.03059093 L81.7013798,1.03059093 C81.6888194,0.801002115 81.4990169,0.617121711 81.2666483,0.617121711 L79.3451304,0.617121711 C79.1127619,0.617121711 78.9229593,0.801002115 78.9101663,1.03059093 L78.907724,1.03059093 L78.907724,2.13794408 C77.7305296,0.687835996 75.8743726,0.0859504229 74.0129821,0.0859504229 C69.7818512,0.0859504229 66.3521475,3.51582589 66.3521475,7.7470524 C66.3521475,11.9785115 69.7818512,15.4085033 74.0129821,15.4085033 L74.0129821,15.4088522 C75.8743726,15.4088522 77.9027708,14.6867058 78.9074914,13.3570912 L78.907724,13.3588358 L78.907724,13.3588358 Z M74.0204253,12.7271758 C71.3295791,12.7271758 69.1480131,10.4976985 69.1480131,7.7470524 C69.1480131,4.99687148 71.3295791,2.76727796 74.0204253,2.76727796 C76.7111552,2.76727796 78.8924886,4.99687148 78.8924886,7.7470524 C78.8924886,10.4976985 76.7111552,12.7271758 74.0204253,12.7271758 L74.0204253,12.7271758 Z"
                  id="Fill-3"></path>
            <path d="M63.9229776,13.8274342 L63.9220472,6.77554511 L63.9222798,6.77554511 C63.9222798,2.80042528 61.4144907,0.118748825 57.4156121,0.118748825 C55.5066546,0.118748825 53.9418305,1.22261278 53.3891702,2.17085879 C53.2697295,1.42940555 52.8760521,0.650036419 51.6553614,0.650036419 L51.0331533,0.650036419 C50.7925275,0.650036419 50.5959795,0.847059445 50.5959795,1.08746476 L50.5959795,13.3929135 L50.5959795,13.3947744 L50.5959795,14.7165966 L50.5984218,14.7165966 C50.6109823,14.9458365 50.8010174,15.1299495 51.0333859,15.1299495 L52.9549039,15.1299495 C52.9843279,15.1299495 53.0131705,15.1264603 53.0410826,15.1209939 C53.0537594,15.1185515 53.065622,15.1135503 53.0779499,15.1100611 C53.0922548,15.1056414 53.1071413,15.1022686 53.1207485,15.0966859 C53.1378447,15.0895912 53.1533126,15.080054 53.1692458,15.0712148 C53.177038,15.0664462 53.185179,15.0630733 53.1927385,15.0580721 C53.2119281,15.0457437 53.2294895,15.0308564 53.2464694,15.0156203 C53.2492606,15.0128289 53.2526333,15.010968 53.2554245,15.0084093 C53.2744978,14.9899166 53.2919429,14.969563 53.3074109,14.9483952 L53.3075272,14.9480463 C53.3556756,14.8819843 53.3848671,14.8024307 53.3896354,14.7165966 L53.3920777,14.7165966 L53.3920777,6.66621711 C53.3920777,4.53129699 55.122979,2.80042528 57.2580248,2.80042528 C59.3929543,2.80042528 61.1238556,4.53129699 61.1238556,6.66621711 L61.1256001,13.3952397 L61.1260653,13.3929135 C61.1260653,13.3988452 61.1269957,13.4050094 61.1269957,13.4114063 L61.1269957,14.7165966 L61.1295543,14.7165966 C61.1422311,14.9458365 61.3320336,15.1299495 61.5644021,15.1299495 L63.4860364,15.1299495 C63.5155767,15.1299495 63.544303,15.1264603 63.5720988,15.1209939 C63.5834962,15.1189004 63.5939633,15.1143644 63.6051282,15.1112242 C63.6208287,15.1066882 63.6369945,15.1027338 63.6521136,15.0966859 C63.6678142,15.0901727 63.6821191,15.0811008 63.6970056,15.0727267 C63.706077,15.0676093 63.7156137,15.0638875 63.7243362,15.0580721 C63.7420139,15.0464415 63.758296,15.0323684 63.7742292,15.0184117 C63.7782997,15.0146898 63.7828354,15.0118985 63.7866733,15.0080604 C63.8049325,14.9904981 63.8210983,14.9715402 63.8359848,14.9516518 C63.8370315,14.9501398 63.8381945,14.9489767 63.8393575,14.9474648 C63.8866918,14.8819843 63.9156507,14.8030122 63.9206516,14.7177596 C63.9206516,14.7171781 63.9208842,14.7165966 63.9208842,14.7165966 L63.9234428,14.7165966 L63.9234428,13.8276668 L63.9229776,13.8274342"
                  id="Fill-4"></path>
            <path d="M19.9917183,11.4069819 C21.2745135,12.295679 22.674656,12.7272921 24.0202536,12.7272921 C25.3021184,12.7272921 26.6273634,12.0627173 26.6273634,10.9060503 C26.6273634,9.36173402 23.7396203,9.12144502 21.9253315,8.50478853 C20.1106938,7.88813205 18.5477305,6.613414 18.5477305,4.54909187 C18.5477305,1.3903266 21.3622042,0.0857178102 23.989085,0.0857178102 C25.6534624,0.0857178102 27.3707566,0.634567669 28.4841019,1.42079887 C28.8675449,1.71133224 28.6340133,2.04489897 28.6340133,2.04489897 L27.5712588,3.56281367 C27.4518181,3.73378407 27.2429423,3.88149319 26.9431194,3.69644972 C26.6432965,3.51152256 25.5917068,2.76716165 23.989085,2.76716165 C22.3863469,2.76716165 21.420936,3.50733553 21.420936,4.42476034 C21.420936,5.52490249 22.6757028,5.870914 24.145393,6.24588581 C26.706564,6.93628055 29.5004525,7.76612664 29.5004525,10.9060503 C29.5004525,13.6891459 26.897297,15.4090848 24.0202536,15.4090848 C21.8399669,15.4090848 19.9836936,14.7875435 18.4268942,13.6450658 C18.1025319,13.3204547 18.3290854,13.0191048 18.3290854,13.0191048 L19.3866065,11.5088663 C19.6017625,11.2264744 19.8730917,11.3249859 19.9917183,11.4069819"
                  id="Fill-5"></path>
        </g>
    </g>
</svg>

<?xml version="1.0" encoding="UTF-8" standalone="no"?>
<svg
   width="23.705036"
   height="21.894354"
   viewBox="0 0 23.705036 21.894354"
   version="1.1"
   id="svg266"
   sodipodi:docname="asana.svg"
   inkscape:version="1.2.1 (9c6d41e410, 2022-07-14, custom)"
   xmlns:inkscape="http://www.inkscape.org/namespaces/inkscape"
   xmlns:sodipodi="http://sodipodi.sourceforge.net/DTD/sodipodi-0.dtd"
   xmlns="http://www.w3.org/2000/svg"
   xmlns:svg="http://www.w3.org/2000/svg">
  <sodipodi:namedview
     id="namedview268"
     pagecolor="#ffffff"
     bordercolor="#666666"
     borderopacity="1.0"
     inkscape:showpageshadow="2"
     inkscape:pageopacity="0.0"
     inkscape:pagecheckerboard="0"
     inkscape:deskcolor="#d1d1d1"
     showgrid="false"
     inkscape:zoom="12.225225"
     inkscape:cx="55.5"
     inkscape:cy="10.960943"
     inkscape:window-width="3840"
     inkscape:window-height="2083"
     inkscape:window-x="0"
     inkscape:window-y="40"
     inkscape:window-maximized="1"
     inkscape:current-layer="svg266" />
  <defs
     id="defs254">
    <radialGradient
       cx="11.390857"
       cy="12.354463"
       fx="11.390857"
       fy="12.354463"
       r="12.703601"
       gradientTransform="scale(1.0405291,0.9610495)"
       id="radialGradient-1"
       gradientUnits="userSpaceOnUse">
      <stop
         stop-color="#FFB900"
         offset="0%"
         id="stop247" />
      <stop
         stop-color="#FA5C86"
         offset="74.7090242%"
         id="stop249" />
      <stop
         stop-color="#F95353"
         offset="100%"
         id="stop251" />
    </radialGradient>
  </defs>
  <g
     id="dots-wrapper"
     style="fill:none;fill-rule:evenodd;stroke:none;stroke-width:1">
    <path
       d="m 17.007883,5.1514375 c 0,2.8453333 -2.308066,5.1520105 -5.155308,5.1520105 -2.847356,0 -5.1554221,-2.3066772 -5.1554221,-5.1520105 C 6.6971529,2.3066771 9.005219,0 11.852575,0 c 2.847242,0 5.155308,2.3066771 5.155308,5.1514375 z M 5.1554225,11.591479 C 2.3081808,11.591479 0,13.897469 0,16.742802 c 0,2.845104 2.3081808,5.151552 5.1554225,5.151552 2.8473564,0 5.1556515,-2.306448 5.1556515,-5.151552 0,-2.845333 -2.3082951,-5.151323 -5.1556515,-5.151323 z m 13.3941915,-4.58e-4 c -2.847242,0 -5.155423,2.306448 -5.155423,5.151781 0,2.845104 2.308181,5.151552 5.155423,5.151552 2.847241,0 5.155422,-2.306448 5.155422,-5.151552 0,-2.845333 -2.308181,-5.151781 -5.155422,-5.151781 z"
       id="dots"
       fill="url(#radialGradient-1)"
       style="fill:url(#radialGradient-1)" />
  </g>
</svg>
